styles/2/Numix/22/actions/pink-document-open-recent.svg

<?xml version="1.0" encoding="UTF-8" standalone="no"?>
<svg
   xmlns:dc="http://purl.org/dc/elements/1.1/"
   xmlns:cc="http://creativecommons.org/ns#"
   xmlns:rdf="http://www.w3.org/1999/02/22-rdf-syntax-ns#"
   xmlns:svg="http://www.w3.org/2000/svg"
   xmlns="http://www.w3.org/2000/svg"
   xmlns:sodipodi="http://sodipodi.sourceforge.net/DTD/sodipodi-0.dtd"
   xmlns:inkscape="http://www.inkscape.org/namespaces/inkscape"
   width="22"
   height="22"
   viewBox="0 0 22 22"
   id="svg2"
   version="1.1"
   inkscape:version="0.91 r"
   sodipodi:docname="pink-document-open-recent.svg">
  <metadata
     id="metadata20">
    <rdf:RDF>
      <cc:Work
         rdf:about="">
        <dc:format>image/svg+xml</dc:format>
        <dc:type
           rdf:resource="http://purl.org/dc/dcmitype/StillImage" />
        <dc:title />
      </cc:Work>
    </rdf:RDF>
  </metadata>
  <defs
     id="defs18" />
  <sodipodi:namedview
     pagecolor="#ffffff"
     bordercolor="#666666"
     borderopacity="1"
     objecttolerance="10"
     gridtolerance="10"
     guidetolerance="10"
     inkscape:pageopacity="0"
     inkscape:pageshadow="2"
     inkscape:window-width="1366"
     inkscape:window-height="747"
     id="namedview16"
     showgrid="false"
     inkscape:zoom="10.727273"
     inkscape:cx="27.259296"
     inkscape:cy="11"
     inkscape:window-x="0"
     inkscape:window-y="21"
     inkscape:window-maximized="1"
     inkscape:current-layer="svg2" />
  <path
     style="color:#000000;font-style:normal;font-variant:normal;font-weight:normal;font-stretch:normal;font-size:medium;line-height:normal;font-family:Sans;-inkscape-font-specification:Sans;text-indent:0;text-align:start;text-decoration:none;text-decoration-line:none;letter-spacing:normal;word-spacing:normal;text-transform:none;direction:ltr;block-progression:tb;writing-mode:lr-tb;baseline-shift:baseline;text-anchor:start;display:inline;overflow:visible;visibility:visible;fill:#f06292;fill-opacity:1;fill-rule:nonzero;stroke:none;stroke-width:1.03313816;marker:none;enable-background:accumulate"
     d="m 3.0000094,2.0000003 c -0.54733,0 -1,0.4096882 -1,1 l -1e-6,5 -1,0 c -0.501927,0 -1.0000003034987,0.384749 -1.0000003034987,1 -1.5e-5,4.5937487 1.29999997e-5,5.4062497 1.29999997e-5,9.9999997 0,0.545771 0.493416803499,1 0.999999903499,1 l 20.000001,0 c 0.515688,0 1.000001,-0.437034 1,-1 l -1.3e-5,-9 c -10e-7,-0.5770207 -0.423105,-0.9999997 -1,-0.9999997 l -2,0 1e-6,-6 c 0,-0.4874255 -0.401824,-1 -1,-1 z"
     id="path2995-3"
     inkscape:connector-curvature="0"
     sodipodi:nodetypes="ccccccssssscssc" />
  <path
     style="color:#000000;font-style:normal;font-variant:normal;font-weight:normal;font-stretch:normal;font-size:medium;line-height:normal;font-family:Sans;-inkscape-font-specification:Sans;text-indent:0;text-align:start;text-decoration:none;text-decoration-line:none;letter-spacing:normal;word-spacing:normal;text-transform:none;direction:ltr;block-progression:tb;writing-mode:lr-tb;baseline-shift:baseline;text-anchor:start;display:inline;overflow:visible;visibility:visible;fill:#000000;fill-opacity:0.32156863;fill-rule:nonzero;stroke:none;stroke-width:1.03313816;marker:none;enable-background:accumulate"
     d="m 3.000008,2.0000003 c -0.544454,0 -1,0.3988699 -1,1 l 1.4e-6,5 -1,0 c -0.5067591,0 -1.0000003034987,0.396468 -1.0000003034987,1 C -1.6903499e-5,13.593749 2.1096501e-5,14.40625 2.1096501e-5,19 c 0,0.487177 0.419198803499,1 0.999999903499,1 l 20.000001,0 c 0.521212,0 1.000001,-0.442558 1,-1 l -1.2e-5,-9 c 0,-0.5731147 -0.393904,-0.9999997 -1,-0.9999997 l -2,0 -1e-6,-6 c 0,-0.5585119 -0.457433,-1 -1,-1 z m 10.000002,7 0,0.9999997 8,0 1.2e-5,9 -20.000001,0 -1.16e-5,-9.9999997 z"
     id="path3786-9"
     inkscape:connector-curvature="0"
     sodipodi:nodetypes="ssccccssssscsssccccccc" />
  <path
     style="fill:#ffffff;fill-opacity:1;stroke:none"
     d="m 13,8 c 0.606908,0 1,0.5318055 1,1 l 3,0 0,-1 z"
     id="path3016"
     inkscape:connector-curvature="0"
     sodipodi:nodetypes="ccccc" />
  <path
     style="fill:#ffffff"
     d="M 5,4 17,4 17,9 16,9 16.010593,8 5,8 Z"
     id="path6"
     inkscape:connector-curvature="0"
     sodipodi:nodetypes="ccccccc" />
  <path
     inkscape:connector-curvature="0"
     id="path16"
     d="M 6,5 16,5 16,6 6,6 Z"
     style="fill:#cccccc" />
  <path
     inkscape:connector-curvature="0"
     id="path16-4"
     d="M 6,7 16,7 16,8 6,8 Z"
     style="fill:#cccccc" />
  <g
     transform="matrix(1 0 0 .99457 -1 -.97778)"
     id="g10">
    <path
       style="fill:#859900;fill-rule:evenodd"
       d="m 20.95,13.17 a 4.881,4.831 0 1 1 -9.76,0 4.881,4.831 0 1 1 9.76,0 z"
       transform="translate(.811 3.999)"
       id="path12" />
    <path
       style="fill:#fff;line-height:normal;color:#000"
       d="m 19.55,14.07 a 0.5,0.5 0 0 0 -0.25,0.2 l -2.66,2.6 -1.66,-1.6 a 0.5,0.5 0 1 0 -0.68,0.6 l 2,2 a 0.5,0.5 0 0 0 0.68,0 l 3,-3 a 0.5,0.5 0 0 0 -0.43,-0.8 z"
       id="path14" />
  </g>
</svg>

<svg xmlns="http://www.w3.org/2000/svg" viewBox="0 0 22 22">
 <path d="m 3 2 c -0.547 0 -1 0.41 -1 1 l 0 5 -1 0 c -0.502 0 -1 0.385 -1 1 0 4.594 0 5.406 0 10 0 0.546 0.493 1 1 1 l 20 0 c 0.516 0 1 -0.437 1 -1 l 0 -9 c 0 -0.577 -0.423 -1 -1 -1 l -2 0 0 -6 c 0 -0.487 -0.402 -1 -1 -1 z" style="visibility:visible;fill:#f06292;fill-opacity:1;stroke:none;display:inline;color:#000;fill-rule:nonzero"/>
 <path d="m 3 2 c -0.544 0 -1 0.399 -1 1 l 0 5 -1 0 c -0.507 0 -1 0.396 -1 1 c 0 4.594 0 5.406 0 10 c 0 0.487 0.419 1 1 1 l 20 0 c 0.521 0 1 -0.443 1 -1 l 0 -9 c 0 -0.573 -0.394 -1 -1 -1 l -2 0 0 -6 c 0 -0.559 -0.457 -1 -1 -1 z m 10 7 0 1 8 0 0 9 -20 0 0 -10 z" style="visibility:visible;fill:#000;fill-opacity:0.322;stroke:none;display:inline;color:#000;fill-rule:nonzero"/>
 <path d="m 13 8 c 0.607 0 1 0.532 1 1 l 3 0 0 -1 z" style="fill:#fff;fill-opacity:1;stroke:none"/>
 <path d="m 5 4 12 0 0 5 -1 0 0.011 -1 -11.01 0" style="fill:#fff"/>
 <path d="m 6 5 10 0 0 1 -10 0" style="fill:#ccc"/>
 <path d="m 6 7 10 0 0 1 -10 0" style="fill:#ccc"/>
 <g transform="matrix(1 0 0 .99457 -1 -.97778)">
  <path d="m 20.95 13.17 a 4.881 4.831 0 1 1 -9.76 0 4.881 4.831 0 1 1 9.76 0 z" transform="translate(.811 3.999)" style="fill:#859900;fill-rule:evenodd"/>
  <path d="m 19.55 14.07 a 0.5 0.5 0 0 0 -0.25 0.2 l -2.66 2.6 -1.66 -1.6 a 0.5 0.5 0 1 0 -0.68 0.6 l 2 2 a 0.5 0.5 0 0 0 0.68 0 l 3 -3 a 0.5 0.5 0 0 0 -0.43 -0.8 z" style="fill:#fff;color:#000"/>
 </g>
</svg>
